svg/us/ks/wichita.svg

<?xml version="1.0" encoding="iso-8859-1"?>
<!DOCTYPE svg PUBLIC "-//W3C//DTD SVG 1.0//EN" "http://www.w3.org/TR/2001/REC-SVG-20010904/DTD/svg10.dtd">
<!-- Creator: CorelDRAW -->
<svg xmlns="http://www.w3.org/2000/svg" xmlns:odm="http://product.corel.com/CGS/11/cddns/" xml:space="preserve" width="1023px" height="682px" style="shape-rendering:geometricPrecision; text-rendering:geometricPrecision; image-rendering:optimizeQuality; fill-rule:evenodd"
     viewBox="0 0 1024 682">
 <defs>
  <style type="text/css">
   <![CDATA[
    .str0 {stroke:#FFFFFF;stroke-width:15}
    .str1 {stroke:#FFFFFF;stroke-width:15;stroke-linecap:round}
    .fil3 {fill:none}
    .fil4 {fill:#FFFFFF}
    .fil2 {fill:#1A3C82}
    .fil1 {fill:#DC2819}
    .fil0 {fill:#FFFFFF}
   ]]>
  </style>
 </defs>
 <path class="fil0" d="M0 0l1024 0 0 682 -1024 0 0 -682z"/>
 <g id="Layer 1">
  <path class="fil1" d="M0 0l352 341 106 -341 -458 0z"/>
  <path class="fil1" d="M1024 0l-672 341 672 341 0 -682z"/>
  <path class="fil1" d="M0 682l352 -341 106 341 -458 0z"/>
  <circle class="fil2 str0" cx="353" cy="341" r="166"/>
  <path class="fil3 str1" d="M213 341l280 0"/>
  <path class="fil3 str1" d="M241 314l223 0"/>
  <path class="fil3 str1" d="M241 368l223 0"/>
  <path class="fil3 str1" d="M353 481l0 -280"/>
  <path class="fil3 str1" d="M325 453l0 -224"/>
  <path class="fil3 str1" d="M380 453l0 -224"/>
  <circle class="fil2 str0" cx="353" cy="341" r="60"/>
  <circle class="fil4" cx="353" cy="341" r="21"/>
 </g>
</svg>

<svg xmlns="http://www.w3.org/2000/svg" width="1023" height="682" viewBox="0 0 1024 682" shape-rendering="geometricPrecision" text-rendering="geometricPrecision" image-rendering="optimizeQuality" fill-rule="evenodd"><defs><style>.str0,.str1{stroke:#fff;stroke-width:15}.str1{stroke-linecap:round}.fil3{fill:none}.fil2{fill:#1a3c82}.fil1{fill:#dc2819}</style></defs><path d="M0 0h1024v682H0V0z" fill="#fff"/><g id="Layer 1"><path class="fil1" d="M0 0l352 341L458 0H0zM1024 0L352 341l672 341V0zM0 682l352-341 106 341H0z"/><circle class="fil2 str0" cx="353" cy="341" r="166"/><path class="fil3 str1" d="M213 341h280M241 314h223M241 368h223M353 481V201M325 453V229M380 453V229"/><circle class="fil2 str0" cx="353" cy="341" r="60"/><circle cx="353" cy="341" r="21" fill="#fff"/></g></svg>
